X:26
T: Schwimmersage
N: A0025
O: Europa, Mitteleuropa, Deutschland
N: Melodie und Text bei Forster II. 1540 No. 49
R: Romanze, Ballade, Lied
M: 3/2
L: 1/4
K: G
G2 | G4_B2 | A4G2 | A3_Bc2 | c4
B2 | c4A2 | _B2A4 | G6 | z4
=F2 | A4_B2 | c4_B2 | G3A_B2 | A4
G2 | =F2D4 | G4F2 | G4

